svg/black/pasc.svg

<svg width="32" height="32" viewBox="0 0 32 32" version="1.1" xmlns="http://www.w3.org/2000/svg" xmlns:xlink="http://www.w3.org/1999/xlink"><title>svg/black/pasc</title><desc>Created with Sketch.</desc><g id="black/pasc" stroke="none" stroke-width="1" fill="none" fill-rule="evenodd"><path d="M16,32 C7.163444,32 0,24.836556 0,16 C0,7.163444 7.163444,0 16,0 C24.836556,0 32,7.163444 32,16 C32,24.836556 24.836556,32 16,32 Z M16,4 C9.372583,4 4,9.372583 4,16 C4,22.627417 9.372583,28 16,28 C22.627417,28 28,22.627417 28,16 C28,12.8174021 26.7357179,9.76515517 24.4852814,7.51471863 C22.2348448,5.26428208 19.1825979,4 16,4 Z M22,9.8125 C23.2426407,9.8125 24.25,10.8198593 24.25,12.0625 L24.25,15.4375 C24.25,16.6801407 23.2426407,17.6875 22,17.6875 L19.21375,17.6875 L19.0346875,18.53125 C18.9841129,18.7439114 18.7983999,18.8970768 18.58,18.90625 L18.0175,18.90625 C17.9230472,18.9101893 17.8324493,18.8685272 17.7739617,18.7942571 C17.715474,18.7199871 17.6962137,18.6221467 17.7221875,18.53125 L17.90125,17.6875 L16.58875,17.6875 L16.4096875,18.53125 C16.3591129,18.7439114 16.1733999,18.8970768 15.955,18.90625 L15.3925,18.90625 C15.2980472,18.9101893 15.2074493,18.8685272 15.1489617,18.7942571 C15.090474,18.7199871 15.0712137,18.6221467 15.0971875,18.53125 L15.27625,17.6875 L13.87,17.6875 L12.634375,23.5 L9.634375,23.5 L11.82625,13.1875 L14.82625,13.1875 L14.348125,15.4375 L20.125,15.4375 C20.7463203,15.4375 21.25,14.9338203 21.25,14.3125 L21.25,13.1875 C21.25,12.5661797 20.7463203,12.0625 20.125,12.0625 L7.75,12.0625 L9.625,9.8125 L16.950625,9.8125 L17.1296875,8.96875 C17.1802621,8.75608857 17.3659751,8.60292323 17.584375,8.59375 L18.146875,8.59375 C18.2413278,8.58981072 18.3319257,8.63147283 18.3904133,8.70574286 C18.448901,8.78001289 18.4681613,8.87785334 18.4421875,8.96875 L18.263125,9.8125 L19.575625,9.8125 L19.7546875,8.96875 C19.8052621,8.75608857 19.9909751,8.60292323 20.209375,8.59375 L20.771875,8.59375 C20.8663278,8.58981072 20.9569257,8.63147283 21.0154133,8.70574286 C21.073901,8.78001289 21.0931613,8.87785334 21.0671875,8.96875 L20.888125,9.8125 L22,9.8125 Z" id="Combined-Shape" fill="#000" fill-rule="nonzero"/></g></svg>

<svg width="32" height="32" viewBox="0 0 32 32" xmlns="http://www.w3.org/2000/svg"><path d="M16 32C7.163 32 0 24.837 0 16S7.163 0 16 0s16 7.163 16 16-7.163 16-16 16zm0-28C9.373 4 4 9.373 4 16s5.373 12 12 12 12-5.373 12-12A12 12 0 0 0 16 4zm6 5.813a2.25 2.25 0 0 1 2.25 2.25v3.374a2.25 2.25 0 0 1-2.25 2.25h-2.786l-.18.844a.488.488 0 0 1-.454.375h-.563a.294.294 0 0 1-.295-.375l.18-.843h-1.313l-.18.843a.488.488 0 0 1-.454.375h-.563a.294.294 0 0 1-.295-.375l.18-.843H13.87L12.634 23.5h-3l2.192-10.313h3l-.478 2.25h5.777c.621 0 1.125-.503 1.125-1.124v-1.126c0-.62-.504-1.124-1.125-1.124H7.75l1.875-2.25h7.326l.179-.844a.488.488 0 0 1 .454-.375h.563a.294.294 0 0 1 .295.375l-.179.844h1.313l.179-.844a.488.488 0 0 1 .454-.375h.563a.294.294 0 0 1 .295.375l-.179.844H22z"/></svg>
